X:1
T:Able, Willing, Mighty
T:Able, Willing, Mighty
T:John Prentice Scholfield
T:John Prentice (Jack) Scholfield, 1914
T:Public Domain Courtesy of the Cyber Hymnal™
T:Public Domain Courtesy of the Cyber Hymnal™
C:John Prentice Scholfield
Z:Public Domain
Z:Courtesy of the Cyber Hymnal™
%%score ( 1 2 ) ( 3 4 )
L:1/8
Q:1/4=96
M:6/8
K:Ab
V:1 treble 
V:2 treble 
V:3 bass 
V:4 bass 
V:1
 [CE][CE][CE] [CA][CA][CA] | [Ec]2 [Ec] [Ec]3 | [Ec][Fd][Ec] [Ec][EB][EA] | %3
w: 1.~Je- sus is a- ble to|save from sin,|Will you re- ceive Him to-|
w: 2.~Je- sus is will- ing to|save your soul,|Will you re- ceive Him to-|
w: 3~Je- sus is might- y to|hold you fast,|Why not ac- cept Him to-|
 [DG]6 [DE][DE][DE][DB][DB][DB] | [Ed]2 [Fd] [Gd]3 | [ce][Bd][Ac] [GB][Gc][GB] | A6 || %7
w: day? A- ble to plant the new|life with- in,|Will you re- ceive Him to-|day?|
w: day? Will- ing to take you and|make you whole,|Je- sus is will- ing to-|day.|
w: day? Might- y to keep you un-|to the last;|Je- sus is might- y to|save.|
"^Refrain" (z [EA][EA])"^Unison" (z [CE][CE]) | z [CE][CE] (z [E,A,][E,A,]) | %9
w: ||
w: ||
w: ||
"^Parts" [CE][CF][CG] [CA][DB][Ec] | d6 |"^Unison" (z [EG][EG]) (z [CE^F][CEF]) | %12
w: |||
w: * A- ble, a- ble, Je-|sus||
w: |||
 z [EG][EG] (z [DG][DG]) |"^Parts" [DE][DF][DG] [DA][DB][=D=B] | c6 | %15
w: |||
w: |* is a- ble to save;|Will-|
w: |||
"^Unison" (z [EA][EA]) (z [CE][CE]) | z [CE][CE] (z [EA][EA]) |"^Parts" [CE][CF][CG] [CA][DB][Ec] | %18
w: |||
w: ||* ing, will- ing, Je- sus|
w: |||
 f6 | [Af]3 [Ag]2 [Af] | e3 c3 | [ce][Bd][Ac] [GB]!fermata![Ace][GBd] | [Ac]6 |] %23
w: |||||
w: is|will- ing to|save; Might-|y, might- y, Je- sus is|might-|
w: |||||
V:2
 x6 | x6 | x6 | x12 | x6 | x6 | A6 || c3 G3 | A3 C3 | x6 | (E2 E G3) | d3 =A3 | c3 B3 | x6 | %14
 (EAF E3) | c3 G3 | A3 c3 | x6 | (F2 =A B3) | x6 | (AAA) (A A2) | x6 | x6 |] %23
V:3
 [A,,A,][A,,A,][A,,A,] [A,,E,][A,,E,][A,,E,] | [A,,A,]2 [A,,A,] [A,,A,]3 | %2
w: ~ ~ ~ ~ ~ ~|~ ~ ~|
 [A,,A,][A,,A,][A,,A,] [A,,A,][B,,G,][C,A,] | [E,B,]6 [E,G,][E,G,][E,G,][E,G,][E,G,][E,G,] | %4
w: ~ ~ ~ ~ ~ ~|~ ~ ~ ~ ~ ~ ~|
 [E,G,]2 [E,A,] [E,B,]3 | [E,E][E,E][E,E] [E,D][E,E][E,D] | [A,,C]6 || C3 G,3 | A,3 C,3 | %9
w: ~ ~ ~|~ ~ ~ ~ ~ ~|~|~ ~|~ ~|
 [A,,A,]3 [A,,A,]2 [A,,A,] | [B,,G,][B,,G,][B,,G,] [E,B,]3 | [E,B,]3 [E,=A,]3 | [E,C]3 [E,B,]3 | %13
w: Je- sus is|a- ble to save;|~ ~|~ ~|
 (G,A,B,) (A,G,)[E,G,] | [A,,A,][A,,A,][A,,A,] [A,,A,]3 | C3 G,3 | A,3 C3 | %17
w: Je- * * sus * is|will- ing to save;|~ ~|~ ~|
 [A,,A,]3 [A,,A,]2 [A,,A,] | [D,A,][D,A,][C,E] [B,,D]3 | [D,D]3 [=D,=B,]2 [D,B,] | %20
w: Je- sus is|might- y to save;|~ ~ yes,|
 [E,C][E,C][E,C] [E,E] [E,E]2 | [E,E][E,E][E,E] [E,D]!fermata![E,E][E,D] | [A,,C]6 |] %23
w: Je- sus is might- y|||
V:4
 x6 | x6 | x6 | x12 | x6 | x6 | x6 || x6 | x6 | x6 | x6 | x6 | x6 | E,3 E,2 x | x6 | x6 | x6 | x6 | %18
 x6 | x6 | x6 | x6 | x6 |] %23

